src/assets/icons/sidebar/sidebar_inbox.svg

<svg width="40" height="40" viewBox="0 0 40 40" fill="none" xmlns="http://www.w3.org/2000/svg">
<path d="M8.57145 12.8077L17.7143 21.6192C18.9715 22.8462 20.9143 22.8462 22.1715 21.6192L31.4286 12.8077M15.4285 21.2846L10.8571 26.1923M24.5715 21.2846L29.1429 26.1923M36 24.2962C36 30.2077 31.4286 34 25.9429 34H14.0571C8.57143 34 4 30.2077 4 24.2962V14.7038C4 8.68077 8.57143 5 14.0571 5H25.9429C31.4286 5 36 8.68077 36 14.7038V24.2962Z" stroke="#253238" stroke-width="2" stroke-miterlimit="10" stroke-linecap="round" stroke-linejoin="round"/>
</svg>

<svg width="40" height="40" viewBox="0 0 40 40" fill="none" xmlns="http://www.w3.org/2000/svg"><path d="m8.571 12.808 9.143 8.811a3.159 3.159 0 0 0 4.458 0l9.257-8.811m-16 8.477-4.572 4.907m13.715-4.907 4.57 4.907M36 24.296C36 30.208 31.429 34 25.943 34H14.057C8.571 34 4 30.208 4 24.296v-9.592C4 8.68 8.571 5 14.057 5h11.886C31.429 5 36 8.68 36 14.704v9.592Z" stroke="#253238" stroke-width="2" stroke-miterlimit="10" stroke-linecap="round" stroke-linejoin="round"/></svg>
